assets/images/tools/monday-trello.svg

<svg height="32" viewBox="0 0 117 32" width="117" xmlns="http://www.w3.org/2000/svg" xmlns:xlink="http://www.w3.org/1999/xlink"><linearGradient id="a" x1="50.000097%" x2="50.000097%" y1="100%" y2="-.000194%"><stop offset="0" stop-color="#0079bf"/><stop offset="1" stop-color="#0079bf"/></linearGradient><mask id="b" fill="#fff"><path d="m3.87235659 0c-2.13875969 0-3.87235659 1.7335969-3.87235659 3.87235659v23.23269771c0 2.1387597 1.7335969 3.8723566 3.87235659 3.8723566h23.23293801c2.1385194 0 3.8721163-1.7335969 3.8721163-3.8723566v-23.23269771c0-2.13875969-1.7335969-3.87235659-3.8721163-3.87235659zm13.62990701 15.7210853v-9.83541088c0-1.02660465.8321938-1.85855814 1.8585581-1.85855814h5.7309147c1.0266047 0 1.8585582.83195349 1.8585582 1.85855814v9.83541088c0 1.0263643-.8319535 1.8585581-1.8585582 1.8585581h-5.7309147c-1.0263643 0-1.8585581-.8321938-1.8585581-1.8585581zm-13.47514732 7.7442325v-17.57964338c0-1.02660465.83195349-1.85855814 1.85879845-1.85855814h5.73067437c1.0263644 0 1.8587985.83195349 1.8587985 1.85855814v17.57964338c0 1.0266047-.8324341 1.8587985-1.8587985 1.8587985h-5.73067437c-1.02684496 0-1.85879845-.8321938-1.85879845-1.8587985z" fill="#fff" fill-rule="evenodd"/></mask><g fill="none" fill-rule="evenodd"><path d="m3.87235659 0c-2.13875969 0-3.87235659 1.7335969-3.87235659 3.87235659v23.23269771c0 2.1387597 1.7335969 3.8723566 3.87235659 3.8723566h23.23293801c2.1385194 0 3.8721163-1.7335969 3.8721163-3.8723566v-23.23269771c0-2.13875969-1.7335969-3.87235659-3.8721163-3.87235659zm13.62990701 15.7210853v-9.83541088c0-1.02660465.8321938-1.85855814 1.8585581-1.85855814h5.7309147c1.0266047 0 1.8585582.83195349 1.8585582 1.85855814v9.83541088c0 1.0263643-.8319535 1.8585581-1.8585582 1.8585581h-5.7309147c-1.0263643 0-1.8585581-.8321938-1.8585581-1.8585581zm-13.47514732 7.7442325v-17.57964338c0-1.02660465.83195349-1.85855814 1.85879845-1.85855814h5.73067437c1.0263644 0 1.8587985.83195349 1.8587985 1.85855814v17.57964338c0 1.0266047-.8324341 1.8587985-1.8587985 1.8587985h-5.73067437c-1.02684496 0-1.85879845-.8321938-1.85879845-1.8587985z" fill="url(#a)" mask="url(#b)" transform="translate(85.5 .711836)"/><g fill-rule="nonzero" transform="translate(0 .711836)"><path d="m6.12549647 29.7075962c-2.21612642.004788-4.26342565-1.1832173-5.35884667-3.1096888-1.0796307-1.9146163-1.01488966-4.2686728.16834073-6.1210561l11.03567027-17.3297433c1.1499155-1.89616493 3.2311057-3.02697469 5.4476932-2.95999123 2.2149741.05307973 4.2296892 1.29496623 5.2723382 3.24991138 1.028749 1.9452707.9001554 4.28567451-.3320053 6.11170385l-11.0286561 17.3297433c-1.1366668 1.7712416-3.09996306 2.8384421-5.20453433 2.8291209z" fill="#f62b54"/><path d="m25.0544767 29.7075558c-2.2258386 0-4.2739842-1.1900964-5.3494944-3.1026342-1.0772364-1.9094238-1.0124858-4.2575334.1683407-6.1046897l11.0146277-17.28999612c1.1333142-1.92337601 3.2206756-3.08073378 5.4523693-3.02311901 2.2445432.04909938 4.2786603 1.30464069 5.3074093 3.26861591 1.0217347 1.96397522.8720985 4.31840742-.3974712 6.13976063l-11.0122896 17.28999619c-1.1330708 1.7635703-3.0873048 2.8275128-5.1834918 2.8220663z" fill="#fc0"/><ellipse cx="43.560269" cy="24.290237" fill="#00ca72" rx="5.6815" ry="5.562258"/></g></g></svg>

<?xml version="1.0" encoding="UTF-8"?>
<svg width="117px" height="32px" viewBox="0 0 117 32" version="1.1" xmlns="http://www.w3.org/2000/svg" xmlns:xlink="http://www.w3.org/1999/xlink">
    <title>Group 2</title>
    <defs>
        <path d="M3.87235659,0 C1.7335969,0 0,1.7335969 0,3.87235659 L0,3.87235659 L0,27.1050543 C0,29.243814 1.7335969,30.9774109 3.87235659,30.9774109 L3.87235659,30.9774109 L27.1052946,30.9774109 C29.243814,30.9774109 30.9774109,29.243814 30.9774109,27.1050543 L30.9774109,27.1050543 L30.9774109,3.87235659 C30.9774109,1.7335969 29.243814,0 27.1052946,0 L27.1052946,0 L3.87235659,0 Z M17.5022636,15.7210853 L17.5022636,5.88567442 C17.5022636,4.85906977 18.3344574,4.02711628 19.3608217,4.02711628 L19.3608217,4.02711628 L25.0917364,4.02711628 C26.1183411,4.02711628 26.9502946,4.85906977 26.9502946,5.88567442 L26.9502946,5.88567442 L26.9502946,15.7210853 C26.9502946,16.7474496 26.1183411,17.5796434 25.0917364,17.5796434 L25.0917364,17.5796434 L19.3608217,17.5796434 C18.3344574,17.5796434 17.5022636,16.7474496 17.5022636,15.7210853 L17.5022636,15.7210853 Z M4.02711628,23.4653178 L4.02711628,5.88567442 C4.02711628,4.85906977 4.85906977,4.02711628 5.88591473,4.02711628 L5.88591473,4.02711628 L11.6165891,4.02711628 C12.6429535,4.02711628 13.4753876,4.85906977 13.4753876,5.88567442 L13.4753876,5.88567442 L13.4753876,23.4653178 C13.4753876,24.4919225 12.6429535,25.3241163 11.6165891,25.3241163 L11.6165891,25.3241163 L5.88591473,25.3241163 C4.85906977,25.3241163 4.02711628,24.4919225 4.02711628,23.4653178 L4.02711628,23.4653178 Z" id="path-1"></path>
        <linearGradient x1="50.000097%" y1="100%" x2="50.000097%" y2="-0.00019393977%" id="linearGradient-3">
            <stop stop-color="#0079BF" offset="0%"></stop>
            <stop stop-color="#0079BF" offset="100%"></stop>
        </linearGradient>
    </defs>
    <g id="Home" stroke="none" stroke-width="1" fill="none" fill-rule="evenodd">
        <g id="methodologie" transform="translate(-380.000000, -7707.000000)">
            <g id="Group-2" transform="translate(380.000000, 7707.711836)">
                <g id="logo_trello" transform="translate(85.500000, 0.000000)">
                    <mask id="mask-2" fill="white">
                        <use xlink:href="#path-1"></use>
                    </mask>
                    <g id="Clip-2"></g>
                    <path d="M3.87235659,0 C1.7335969,0 0,1.7335969 0,3.87235659 L0,3.87235659 L0,27.1050543 C0,29.243814 1.7335969,30.9774109 3.87235659,30.9774109 L3.87235659,30.9774109 L27.1052946,30.9774109 C29.243814,30.9774109 30.9774109,29.243814 30.9774109,27.1050543 L30.9774109,27.1050543 L30.9774109,3.87235659 C30.9774109,1.7335969 29.243814,0 27.1052946,0 L27.1052946,0 L3.87235659,0 Z M17.5022636,15.7210853 L17.5022636,5.88567442 C17.5022636,4.85906977 18.3344574,4.02711628 19.3608217,4.02711628 L19.3608217,4.02711628 L25.0917364,4.02711628 C26.1183411,4.02711628 26.9502946,4.85906977 26.9502946,5.88567442 L26.9502946,5.88567442 L26.9502946,15.7210853 C26.9502946,16.7474496 26.1183411,17.5796434 25.0917364,17.5796434 L25.0917364,17.5796434 L19.3608217,17.5796434 C18.3344574,17.5796434 17.5022636,16.7474496 17.5022636,15.7210853 L17.5022636,15.7210853 Z M4.02711628,23.4653178 L4.02711628,5.88567442 C4.02711628,4.85906977 4.85906977,4.02711628 5.88591473,4.02711628 L5.88591473,4.02711628 L11.6165891,4.02711628 C12.6429535,4.02711628 13.4753876,4.85906977 13.4753876,5.88567442 L13.4753876,5.88567442 L13.4753876,23.4653178 C13.4753876,24.4919225 12.6429535,25.3241163 11.6165891,25.3241163 L11.6165891,25.3241163 L5.88591473,25.3241163 C4.85906977,25.3241163 4.02711628,24.4919225 4.02711628,23.4653178 L4.02711628,23.4653178 Z" id="Fill-1" fill="url(#linearGradient-3)" mask="url(#mask-2)"></path>
                </g>
                <g id="logo_monday" fill-rule="nonzero">
                    <path d="M6.12549647,29.7075962 C3.90937005,29.7123842 1.86207082,28.5243789 0.766649797,26.5979074 C-0.312980905,24.6832911 -0.248239855,22.3292346 0.93499053,20.4768513 L11.9706608,3.147108 C13.1205763,1.25094307 15.2017665,0.120133307 17.418354,0.187116773 C19.6333281,0.240196495 21.6480432,1.482083 22.6906922,3.43702815 C23.7194412,5.38229885 23.5908476,7.72270266 22.3586869,9.548732 L11.3300308,26.8784753 C10.193364,28.6497169 8.23006774,29.7169174 6.12549647,29.7075962 L6.12549647,29.7075962 Z" id="path841" fill="#F62B54"></path>
                    <path d="M25.0544767,29.7075558 C22.8286381,29.7075558 20.7804925,28.5174594 19.7049823,26.6049216 C18.6277459,24.6954978 18.6924965,22.3473882 19.873323,20.5002319 L30.8879507,3.21023578 C32.0212649,1.28685977 34.1086263,0.129501998 36.34032,0.187116773 C38.5848632,0.236216154 40.6189803,1.49175746 41.6477293,3.45573268 C42.669464,5.4197079 42.5198278,7.7741401 41.2502581,9.59549331 L30.2379685,26.8854895 C29.1048977,28.6490598 27.1506637,29.7130023 25.0544767,29.7075558 Z" id="path843" fill="#FFCC00"></path>
                    <ellipse id="ellipse845" fill="#00CA72" cx="43.5602694" cy="24.2902365" rx="5.68149998" ry="5.56225816"></ellipse>
                </g>
            </g>
        </g>
    </g>
</svg>
